Assets/Icons/interaction/arrow-left-circle.svg

<svg enable-background="new 0 0 60 60" viewBox="0 0 60 60" xmlns="http://www.w3.org/2000/svg"><path d="m30 1.5c-15.71 0-28.5 12.79-28.5 28.5s12.79 28.5 28.5 28.5 28.5-12.79 28.5-28.5-12.79-28.5-28.5-28.5zm0 54c-14.06 0-25.5-11.44-25.5-25.5s11.44-25.5 25.5-25.5 25.5 11.44 25.5 25.5-11.44 25.5-25.5 25.5z"/><path d="m33.17 12.95c-.23-.15-.54-.09-.69.14l-10.54 15.8c-.45.67-.45 1.55 0 2.22l10.54 15.81c.15.23.46.29.69.14 1.15-.77 1.46-2.32.69-3.47l-9.06-13.59 9.06-13.59c.77-1.15.46-2.7-.69-3.46z"/></svg>

<?xml version="1.0" encoding="utf-8"?>
<!-- Generator: Adobe Illustrator 21.1.0, SVG Export Plug-In . SVG Version: 6.00 Build 0)  -->
<svg version="1.1" id="EPS" xmlns="http://www.w3.org/2000/svg" xmlns:xlink="http://www.w3.org/1999/xlink" x="0px" y="0px"
	 viewBox="0 0 60 60" style="enable-background:new 0 0 60 60;" xml:space="preserve">
<g>
	<path d="M30,1.5C14.29,1.5,1.5,14.29,1.5,30S14.29,58.5,30,58.5S58.5,45.71,58.5,30S45.71,1.5,30,1.5z M30,55.5
		C15.94,55.5,4.5,44.06,4.5,30S15.94,4.5,30,4.5S55.5,15.94,55.5,30S44.06,55.5,30,55.5z"/>
	<path d="M33.17,12.95c-0.23-0.15-0.54-0.09-0.69,0.14l-10.54,15.8c-0.45,0.67-0.45,1.55,0,2.22l10.54,15.81
		c0.15,0.23,0.46,0.29,0.69,0.14c1.15-0.77,1.46-2.32,0.69-3.47L24.8,30l9.06-13.59C34.63,15.26,34.32,13.71,33.17,12.95z"/>
</g>
</svg>
